X:1
T:O Mutter schon
T:O Mutter schon
T:Adam Gumpelzhaimer
T:Source : Neüe Teütsche Geisliche Lieder mit 3 stimmen---Augsburg---V.Schonigk---1591. Editor : André Vierendeels (06/07/16).
T:Notes : Original clefs :C1, C2, C4 Text Middle German See also the Latin version "Parens pie in aethere" (A.Gumpelzhaimer)
T:©
T:©
T:©
T:©
C:Adam Gumpelzhaimer
Z:©
%%score [ 1 [ 2 3 ] ]
L:1/8
Q:1/4=121
M:4/4
K:C
V:1 treble nm="Soprano" snm="S"
V:2 treble-8 nm="Tenor 1" snm="T 1"
V:3 treble-8 nm="Tenor 2" snm="T 2"
V:1
 G4 G4 | G2 A4 B2 | c4 c4 | B4 z2 G2 | A2 c2 B2 A2 | G4 A2 A2 | B2 c2 d2 c2 | B2 c4 B2 | c8 | %9
w: O Mut-|ter schon, inns|Him- mels|thron, dein|Nam ge- hei- ligt|wer- de, dein|Nam ge- hei- ligt|wer- * *|de,|
w: Und uns|ver- gib, ausz|gnad und|lieb, all|un- ser sünd und|schul- den, all|un- ser sünd und|schul- * *|den,|
 G4 G4 | G2 A4 B2 | c4 c4 | B4 z2 G2 | A2 c2 B2 A2 | G4 A2 A2 | B2 c2 d2 c2 | B2 c4 B2 | c8 |: %18
w: zu kum|dein Reich, dein|will desz-|gleich ge-|scheh auch so auff|er- den, ge-|scheh auch so aff|er- * *|de,|
w: wie wir|auch gern un-|sern Schuld-|nern mil-|fer- tig sein mit|hul- den, mil-|fer- tig sein mit|hul- * *|den,|
 z2 c2 B2 A2 | G2 F2 EFGA | BcdB c2 c2 | B4 z2 G2 | A4 G4 | F4 E2 F2- | FE ED/C/ D4 | E4 z4 | %26
w: wie dir gibt|ehr, deins Him- * * *|* * * * * mels|chor, lasz|uns nies-|sen noch heu-||te|
w: für uns nicht|inn Ver- su- * * *|* * * * * chung|hinn, son-|dern wolst|uns vom Bö-||sen,|
 z2 c2 B2 A2 | G2 F2 EFGA | BcdB c2 c2 | B4 z2 G2 | A4 G4 | F4 E2 F2- | FE ED/C/ D4 |1 E8 :|2 %34
w: das täg- lich|brod zu un- * * *|* * * * * ser|not, mit|danck als|Chri- sten- leü-||te,|
w: durch den frei|reich ge- wal- * * *|* * * * * tig|leich mit|eh en|er- lö- *||sen|
 !fermata!E4 !fermata!E4 || E8 |] %36
w: te. (A-|men.)|
w: sen. A-|men.|
V:2
 d4 e4 | e2 ^f4 g2 | e^f g4 f2 | g2 d2 e2 g2 | f2 e2 d4 | G2 B2 c2 d2 | G2 g2 f2 e2- | e2 dc d4 | %8
w: O Mut-|ter schon, inns|Him- * * mels|thron, dein Nam ge-|hei- ligt wer-|de, dein Nam ge-|hei- ligt wer- *||
w: Und uns|ver- gib, ausz|gnad _ _ und|lieb, all un- ser|sünd und schul-|den, all un- ser|sünd und schul- *||
 e8 | d4 e4 | e2 ^f4 g2 | e^f g4 f2 | g2 d2 e2 g2 | f2 e2 d4 | G2 B2 c2 d2 | G2 g2 f2 e2- | %16
w: de,|zu kum|dein Reich, dein|will _ _ desz-|gleich ge- scheh auch|so auff er-|den, ge- scheh auch|so auff er- *|
w: den,|wie wir|auch gern un-|sern _ _ Schuld-|nern mil- fer- tig|sein mit hul-|den, mil- fer- tig|sein mit hul- *|
 e2 dc d4 | e2 g2 f2 e2 |: d2 c2 d2 d2 | G2 A2 cdef | ga g4 f2 | g4 z2 e2 | f4 e4 | d4 c2 BA | %24
w: |de, wie dir gibt|ehr, deins Him- mels|chor, deins Him- * * *|* * * mels|chor, lasz|uns nies-|sen noch _ _|
w: |den, für uns nicht|inn Ver su- chung|hinn, inn ver- * * *|* * su- chung|hinn, son-|dern wolst|uns vom _ _|
 B2 c4 B2 | c2 g2 f2 e2 | d2 c2 d2 d2 | G2 A2 cdef | ga g4 f2 | g4 z2 e2 | f4 e4 | d4 c2 BA | %32
w: _ heu- te|das täg- lich brod|zu un- * ser|not, zu un- * * *|* * * ser|not, mit|danck als|Chri- sten- leü- *|
w: _ Bö- *|sen durch dein frei|reich, durch dein frei|reich ge- wal- * * *|* * * tig|leich mit|eh- en|er- lö- * *|
 B2 c4 B2 |1 e2 g2 f2 e2 :|2 !fermata!c4 !fermata!c4 || c8 |] %36
w: |te, wie dir gibt|te. (A-|men.)|
w: |sen, für uns nicht|sen. A-|men.|
V:3
 G4 c4 | e2 d4 A2 | c4 A4 | G8 | z4 z2 D2 | E2 G2 F4 | E4 D2 EF | G8 | C8 | G4 c4 | e2 d4 A2 | %11
w: O Mut-|ter schon, inns|Him- mels|thron,|dein|Nam ge- hei-|ligt wer- * *||de,|zu kum|dein Reich, dein|
w: Und uns|ver- gib, ausz|gnad und|lieb,|all|un- ser sünd|und schul- * *||den,|wie wir|auch gern un-|
 c4 A4 | G8 | z4 z2 D2 | E2 G2 F4 | E4 D2 EF | G8 | C4 z2 c2 |: B2 A2 G2 F2 | E2 D2 C2 c2 | B4 A4 | %21
w: will desz|gleich|ge-|scheh auch so|auff er- * *||de, wie|dir gibt ehr, deins|Him- mels chor, deins|Him- mels|
w: sern Schuld-|nern|mil-|fer- tig sein|mit hul- * *||den, für|uns nicht inn Ver-|su- chung hinn, inn|Ver- su-|
 G4 c4 | FGAB c2 C2 | DEFG A2 F2 | G8 | C4 z2 c2 | B2 A2 G2 F2 | E2 D2 C2 c2 | B4 A4 | G4 c4 | %30
w: chor, lasz|uns _ _ _ _ nies-|sen _ _ _ _ noch|heu-|te, das|täg- lich brod zu|un- ser not, zu|un- ser|not, mit|
w: chung hinn,|son- * * * dern wolst|uns _ _ _ _ vom|Bö-|sen durch|dein frei reich ge-|wal- tig- leich, ge-|wal- tig-|leich mit|
 FGAB c2 C2 | DEFG A2 F2 | G8 |1 C4 z2 c2 :|2 !fermata!C4 !fermata!C4 || C8 |] %36
w: danck _ _ _ _ als|Chri- * * * * sten-|leü-|te, wie|te. (A-|men.)|
w: eh- * * * en er-|lö- * * * * *||sen, für|sen. A-|men.|

